contributed-vectors/xash_three_d_fwgs.svg

<?xml version="1.0" encoding="UTF-8" standalone="no"?>
<svg
   xmlns:dc="http://purl.org/dc/elements/1.1/"
   xmlns:cc="http://creativecommons.org/ns#"
   xmlns:rdf="http://www.w3.org/1999/02/22-rdf-syntax-ns#"
   xmlns:svg="http://www.w3.org/2000/svg"
   xmlns="http://www.w3.org/2000/svg"
   xmlns:sodipodi="http://sodipodi.sourceforge.net/DTD/sodipodi-0.dtd"
   xmlns:inkscape="http://www.inkscape.org/namespaces/inkscape"
   width="192"
   height="192"
   version="1.1"
   viewBox="0 0 192 192"
   id="svg16"
   sodipodi:docname="xash_three_d_fwgs.svg"
   inkscape:version="0.92.5 (2060ec1f9f, 2020-04-08)">
  <metadata
     id="metadata22">
    <rdf:RDF>
      <cc:Work
         rdf:about="">
        <dc:format>image/svg+xml</dc:format>
        <dc:type
           rdf:resource="http://purl.org/dc/dcmitype/StillImage" />
        <dc:title></dc:title>
      </cc:Work>
    </rdf:RDF>
  </metadata>
  <defs
     id="defs20" />
  <sodipodi:namedview
     pagecolor="#ffffff"
     bordercolor="#666666"
     borderopacity="1"
     objecttolerance="10"
     gridtolerance="10"
     guidetolerance="10"
     inkscape:pageopacity="0"
     inkscape:pageshadow="2"
     inkscape:window-width="1280"
     inkscape:window-height="745"
     id="namedview18"
     showgrid="false"
     inkscape:zoom="1.2291667"
     inkscape:cx="-50.033898"
     inkscape:cy="89.491525"
     inkscape:window-x="-12"
     inkscape:window-y="-2"
     inkscape:window-maximized="1"
     inkscape:current-layer="svg16" />
  <circle
     cx="96"
     cy="96"
     r="88"
     style="fill:#ff837d;stroke-width:4"
     id="circle2" />
  <path
     style="opacity:1;fill:#ececec"
     d="M 60 56 L 60 72 L 72 72 L 86.337891 93.505859 L 60 132 L 80 132 L 96.207031 108.3125 L 112 132 L 132 132 L 132 116 L 120 116 L 105.66211 94.494141 L 132 56 L 112 56 L 95.792969 79.6875 L 80 56 L 60 56 z "
     id="path10" />
</svg>

<svg xmlns="http://www.w3.org/2000/svg" width="192" height="192"><circle cx="96" cy="96" r="88" style="fill:#ff837d;stroke-width:4"/><path d="M60 56v16h12l14.338 21.506L60 132h20l16.207-23.688L112 132h20v-16h-12l-14.338-21.506L132 56h-20L95.793 79.688 80 56H60z" style="opacity:1;fill:#ececec"/></svg>
